X:1
T:Drifting Away from God
T:Drifting Away from God
T:Peter Philip Bilhorn
T:Amanda Cartwright Griffith, 1890
T:Public Domain Courtesy of the Cyber Hymnal™
T:Public Domain Courtesy of the Cyber Hymnal™
C:Peter Philip Bilhorn
Z:Public Domain
Z:Courtesy of the Cyber Hymnal™
%%score 1 2
L:1/8
Q:1/4=83
M:6/8
K:F
V:1 treble 
V:2 bass 
V:1
 A^GA B2 A | AG^F G3 | G^FG A2 G | GFE F3 | A^GA!ff! c2 c | cBA B3 | AFB A2 G | F3- F2 z || %8
w: 1.~Drift- ing a- way from|Christ in thy youth,|Drift- ing a- way from|mer- cy and truth,|Drift- ing to sin in|ten- der- est youth,|Drift- ing a- way from|God. *|
w: 2.~Drift- ing a- way from|mo- ther and home,|Drift- ing a- way in|sor- row to roam,|Drift- ing where peace and|rest can- not come,|Drift- ing a- way from|God. *|
w: 3.~Drift- ing a- way on|sin’s treach- erous tide,|Drift- ing where death and|dark- ness a- bide,|Drift- ing from Heav’n a-|way in your pride,|Drift- ing a- way from|God. *|
w: 4.~Drift- ing a- way from|hope’s bless- èd shore,|Drift- ing a- way where|wild break- ers roar;|Drift- ed and strand- ed,|wrecked ev- er- more,|Far from the light of|God. *|
w: 5.~Why will you drift on|bil- lows of shame,|Spurn- ing His grace a-|gain and a- gain?|Soon you’ll be lost! in|sin to re- main,|Ev- er a- way from|God. *|
"^Refrain" [EG]<[EG][EG] [EG][FA][GB] | [Bd][Ac][FA] [Ac]3 | [EB] z/ [EB]/[EB] [EG][FA][GB] | %11
w: |||
w: |||
w: Bro- ther, the Sav- ior has|called you be- fore,|See! you are near- ing e-|
w: |||
w: |||
 [Bd][Ac][FA] [Ac]3 | [Fd]>[Fd][Fd] !>![Ff]>[Fe][Fd] | !>![Fd][Fc][FA] !>![Fc]2 z | %14
w: |||
w: |||
w: ter- ni- ty’s shore!|Soon you may per- ish, be|lost ev- er- more;|
w: |||
w: |||
"^riten." [FA][CF][B,D] !fermata![A,C]2 [B,G] | [A,F]3- [A,F]2 z |] %16
w: ||
w: ||
w: Je- sus now calls for|you. *|
w: ||
w: ||
V:2
 C=B,C D2 C | CB,A, B,3 | B,A,B, C2 B, | B,A,G, A,3 | C=B,C _E2 E | EDC D3 | CA,D C2 B, | %7
 A,3- A,2 z || [C,C]<[C,C][C,C] [C,C][C,C][C,E] | [F,F][F,F][F,C] [F,C]3 | %10
 [G,C] z/ [G,C]/[G,C] [C,C][C,C][C,C] | [F,F][F,F][F,C] [F,C]3 | %12
 [B,,B,]>[B,,B,][B,,B,] [B,,D]>[C,B,][D,B,] | [F,B,][F,A,][F,C] [F,C]2 z | %14
 [F,C][F,A,][B,,F,] !fermata![C,F,]2 [C,E,] | [F,,F,]3- [F,,F,]2 z |] %16

